!!!COM: Corelli, Arcangelo
!!!OTL: 
!!!ONM: Opus 5, No. 7
!!!OMV: 4
!!!CDT: 1653/2/17/-1713/1/8/
!!!OCY: Italia
**kern	**kern
*clefC	*clefG
*k[]	*k[]
*a:	*a:
*M6/8	*M6/8
=1	=1
2.r	4r
.	8dd
.	8cc#
.	8a
.	8cc#
=2	=2
2.r	8dd
.	8a
.	8dd
.	8cc#
.	8a
.	8cc#
=3	=3
4r	4dd
8d	8ff
8c#	8ee
8A	8cc#
8c#	8ee
=4	=4
8d	8ff
8A	8dd
8d	8ff
8c#	8ee
8A	8cc#
8c#	8ee
=5	=5
4d	4ff
8F	8aa
8E	8gg
8C	8ee
8E	8gg
=6	=6
8F	8aa
8C	8ff
8F	8aa
8E	8gg
8C	8ee
8E	8gg
=7	=7
4F	4aa
8G	8bb-
8F#	8aa
8D	8ff#
8F#	8aa
=8	=8
8G	8bb-
8D	8gg
8G	8bb-
8F#	8aa
8D	8ff#
8F#	8aa
=9	=9
4.G	4.bb-
4.A	4aa
.	8cc#
=10	=10
4.B-	8dd
.	8ee
.	8ff
4r	4ee
8B-	8dd
=11	=11
8A	4.cc#
8B	.
8c#	.
8A	4r
8B	.
8c#	8aa
=12	=12
4.d	8ff
.	8gg
.	8aa
4r	8dd
.	8ee
8d	8ff
=13	=13
8B	4.gg
8c	.
8d	.
8G	4r
8A	.
8B	8gg
=14	=14
4.c	8ee
.	8ff
.	8gg
4r	8cc
.	8dd
8c	8ee
=15	=15
8A	4.ff
8B-	.
8c	.
8F	4r
8G	.
8A	8cc
=16	=16
4.B-	8dd
.	8b-
.	8cc
4.BB-	8dd
.	8b-
.	8dd
=17	=17
4.C	8e
.	8dd
.	8cc
4.AA	8f
.	8g
.	8a
=18	=18
4.BB-	8d
.	8e
.	8f
4.C	4c
.	8cc
=19	=19
4.FF	8a
.	8cc
.	8a
4r	8g
.	8cc
8E	8g
=20	=20
8F	4.a
8C	.
8F	.
8E	4r
8C	.
8E	8cc
=21	=21
4.F	8cc
.	8dd
.	8cc
4r	8dd
.	8ee
8F#	8dd
=22	=22
8G	4.dd
8D	.
8G	.
8F#	4r
8D	.
8F#	8dd
=23	=23
4.G	8dd
.	8ee
.	8dd
4r	8ee
.	8ff
8G#	8ee
=24	=24
8A	4.ee
8E	.
8A	.
8G#	4r
8E	.
8G#	8ee
=25	=25
4.A	8cc
.	8b
.	8a
4.A	8ff
.	8gg
.	8ff
=26	=26
4.G#	8ff
.	8gg
.	8ff
4.G	8ee
.	8ff
.	8ee
=27	=27
4.F#	8aa
.	8bb
.	8aa
4.F	8dd
.	8ee
.	8dd
=28	=28
4.E	8gg#
.	8ee
.	8gg#
4.C	8aa
.	8ee
.	8dd
=29	=29
4.D	8cc
.	8b
.	8a
4.E	8e
.	8a
.	8g#
=30	=30
4.AA	4A
.	8cc
4.A	8ff
.	8gg
.	8ff
=31	=31
4.G#	8ff
.	8gg
.	8ff
4.G	8ee
.	8ff
.	8ee
=32	=32
4.F#	8aa
.	8bb
.	8aa
4.F	8dd
.	8ee
.	8dd
=33	=33
4.E	8gg#
.	8ee
.	8gg#
4.C	8aa
.	8ee
.	8dd
=34	=34
4.D	8cc
.	8b
.	8a
4.E	8e
.	8a
.	8g#
=35	=35
2.AA	2.A
=36	=36
4r	2.r
8f	.
8e	.
8c	.
8e	.
=37	=37
8f	2.r
8c	.
8f	.
8e	.
8c	.
8e	.
=38	=38
4f	4r
8d	8ff
8c#	8ee
8A	8aa
8c#	8ee
=39	=39
8d	8ff
8A	8aa
8d	8ff
8c#	8ee
8A	8aa
8c#	8ee
=40	=40
4d	4ff
8B-	8dd
8A	8cc
8F	8ff
8A	8cc
=41	=41
8B-	8dd
8F	8ff
8B-	8dd
8A	8cc
8F	8ff
8A	8cc
=42	=42
4B-	4dd
8G	8bb-
8F#	8aa
8D	8dd
8F#	8aa
=43	=43
8G	8bb-
8D	8dd
8G	8bb-
8F#	8aa
8D	8dd
8F#	8aa
=44	=44
4.G	8bb-
.	8dd
.	8bb-
4.G	8bb-
.	8dd
.	8bb-
=45	=45
4.F#	8aa
.	8dd
.	8aa
4.F	8aa
.	8dd
.	8aa
=46	=46
4.E	8gg
.	8dd
.	8gg
4.E-	8gg
.	8cc
.	8gg
=47	=47
4.D	8ff#
.	8dd
.	8ff#
4.BB-	8gg
.	8aa
.	8bb-
=48	=48
4.C	8ee
.	8ff#
.	8gg
4.D	8dd
.	8gg
.	8ff#
=49	=49
4.GG	4.gg
4.E	8gg
.	8aa
.	8bb-
=50	=50
4F	8aa
.	8gg
8BB-	8ff
4.C	8cc
.	8ff
.	8ee
=51	=51
4.FF	4.ff
4.A	8ff
.	8gg
.	8aa
=52	=52
4.B-	8gg
.	8aa
.	8ff
4.G	8ee
.	8ff
.	8dd
=53	=53
4.A	4.cc#
8F	4.aa
8G	.
8A	.
=54	=54
8B-	4.dd
8A	.
8B-	.
8G	4.bb-
8F	.
8G	.
=55	=55
8A	4.cc#
8G	.
8A	.
8F	4.aa
8G	.
8A	.
=56	=56
8B-	4.dd
8A	.
8B-	.
8G	4.bb-
8F	.
8G	.
=57	=57
8A	4.cc#
8G	.
8A	.
8F	4.aa
8E	.
8F	.
=58	=58
8G	8gg
8F	8aa
8G	8ff
8A	4.ee
8G	.
8A	.
=59	=59
4.D	4dd
.	8f
4.d	8b-
.	8cc
.	8b-
=60	=60
4.c#	8b-
.	8cc
.	8b-
4.c	8a
.	8b-
.	8a
=61	=61
4.B	8dd
.	8ee
.	8dd
4.B-	8g
.	8a
.	8g
=62	=62
4.A	8cc#
.	8a
.	8cc#
4.F	8dd
.	8a
.	8g
=63	=63
4.G	8f
.	8e
.	8d
4.A	4A
.	8c#
=64	=64
4.D	4d
.	8f
4.D	8b-
.	8cc
.	8b-
=65	=65
4.C#	8b-
.	8cc
.	8b-
4.C	8a
.	8b-
.	8a
=66	=66
4.BB	8dd
.	8ee
.	8dd
4.BB-	8g
.	8a
.	8g
=67	=67
4.AA	8cc#
.	8a
.	8cc#
4.FF	8dd
.	8a
.	8g
=68	=68
4.GG	8f
.	8e
.	8d
4.AA	4A
.	8c#
=69	=69
2.DD	2.d
==	==
*-	*-
!!!RWG: This file only contains pitch and duration data.
!!!RWG: Transposing instruments are not transposed.
!!!RWG: Durations of rests and tied notes may be interpreted.
!!!RWG: Key is interpreted using the Humdrum key tool.
!!!SCA: 
!!!YOR: 
!!!AGN: violin
!!!AFT: stage1
!!!ENC: F. Bennion
!!!END: 1997/04/15
!!!AST: baroque
!!!YEC: Copyright 1994, Center for Computer Assisted Research in the Humanities
!!!YEM: Rights to all derivative electronic formats reserved.
!!!YEM: Refer to licensing agreement for further details.
!!!YEN: United States of America
!!!EED: W.B. Hewlett
!!!KEY: 809156379
!!!EMD: Converted from MuseData to Humdrum Aug 9, 1999, by Bret Aarden using muse2kern.
!!!VTS: 3457914870
